src/components/icon/assets/settings.svg

<?xml version="1.0" encoding="UTF-8"?>
<svg width="24px" height="24px" viewBox="0 0 24 24" version="1.1" xmlns="http://www.w3.org/2000/svg" xmlns:xlink="http://www.w3.org/1999/xlink">
    <!-- Generator: Sketch 60 (88103) - https://sketch.com -->
    <title>Settings</title>
    <desc>Created with Sketch.</desc>
    <g id="Settings" stroke="none" stroke-width="1" fill="none" fill-rule="evenodd">
        <path d="M12.0006373,15.4285714 C10.1071743,15.4285714 8.57221933,13.8935477 8.57221933,12 C8.57221933,10.1064523 10.1071743,8.57142857 12.0006373,8.57142857 C13.8941002,8.57142857 15.4290552,10.1064523 15.4290552,12 C15.4290552,13.8935477 13.8941002,15.4285714 12.0006373,15.4285714 Z M12.0006373,14.0571429 C13.1367151,14.0571429 14.0576881,13.1361286 14.0576881,12 C14.0576881,10.8638714 13.1367151,9.94285714 12.0006373,9.94285714 C10.8645595,9.94285714 9.94358651,10.8638714 9.94358651,12 C9.94358651,13.1361286 10.8645595,14.0571429 12.0006373,14.0571429 Z M18.3112491,12.398744 L19.5931804,13.379802 C20.0090754,13.6991949 20.1190792,14.2719964 19.8552445,14.7420732 L18.3600282,17.2579009 C18.1037528,17.7149388 17.5507758,17.8983178 17.0516315,17.7212891 L15.5241852,17.1186021 C15.2833054,17.2793306 15.0394691,17.4195487 14.7849905,17.542298 L14.5579174,19.1228899 C14.4706253,19.632373 14.0234162,20 13.5061257,20 L10.4984704,20 C9.98117991,20 9.53397079,19.632373 9.44378634,19.1045142 L9.22003682,17.5456435 C8.9682002,17.4250575 8.72473737,17.2839692 8.47939736,17.1189158 L6.92995873,17.7298937 C6.45382035,17.8983178 5.90084337,17.7149388 5.6531793,17.2728161 L4.15278583,14.7477891 C3.87282552,14.2869178 3.99174466,13.7020948 4.41233048,13.3791007 L5.69334707,12.3987438 C5.68264945,12.2613677 5.67726068,12.1313029 5.67726068,12 C5.67726068,11.8649071 5.68290825,11.7302201 5.69425404,11.5842444 L4.41141569,10.620198 C3.99174466,10.2979052 3.87282552,9.7130822 4.14935163,9.25792678 L5.64456793,6.74209911 C5.90312302,6.28099565 6.47030622,6.08663595 6.95080431,6.27786269 L8.48211239,6.87609115 C8.72904447,6.71244548 8.97095852,6.57321871 9.2201144,6.45416052 L9.44667875,4.87711009 C9.53397079,4.36762699 9.98117991,4 10.4984704,4 L13.5061257,4 C14.0234162,4 14.4706253,4.36762699 14.5608098,4.89548577 L14.7845348,6.45418589 C15.0336728,6.57323889 15.2755709,6.71245805 15.5224863,6.87609283 L17.0497727,6.27944745 C17.5342899,6.08663595 18.1014731,6.28099565 18.3514168,6.72718392 L19.8638559,9.27284196 C20.1190792,9.72800362 20.0090754,10.3008051 19.5874684,10.6245373 L18.3103428,11.584253 C18.3216881,11.7302254 18.3273355,11.8649097 18.3273355,12 C18.3273355,12.131303 18.3219467,12.2613678 18.3112491,12.398744 Z M16.8585729,13.0139417 L16.9089268,12.6220856 C16.9407282,12.3746053 16.9559683,12.1833651 16.9559683,12 C16.9559683,11.8161205 16.9407555,11.6193029 16.9082951,11.3509068 L16.8607859,10.9580803 L17.1771056,10.720377 L18.5265182,9.70638013 L17.3058188,7.65176294 L15.3304945,8.42345302 L15.0269066,8.20196536 C14.6325312,7.91424215 14.2862185,7.7148347 13.913375,7.57091184 L13.5386366,7.42625746 L13.4815637,7.02862852 L13.2439207,5.37142857 L10.7608955,5.37142857 L10.4659596,7.42625746 L10.0912211,7.57091184 C9.71837767,7.7148347 9.37206493,7.91424215 8.97768955,8.20196536 L8.67410168,8.42345302 L8.32407216,8.28670874 L6.69896573,7.65182389 L5.47808816,9.70634778 L7.14381024,10.9580803 L7.09630101,11.3509068 C7.06384063,11.6193029 7.04862786,11.8161205 7.04862786,12 C7.04862786,12.1833651 7.06386789,12.3746053 7.09566933,12.6220856 L7.14602319,13.0139417 L6.8322878,13.2540421 L5.47676796,14.2914151 L6.6983109,16.347452 L8.67792564,15.5663522 L8.98436253,15.7956509 C9.36726237,16.0821648 9.7147524,16.2837659 10.0912211,16.4290882 L10.4659596,16.5737425 L10.5230325,16.9713715 L10.7606755,18.6285714 L13.2437006,18.6285714 L13.5377653,16.5798125 L13.9048463,16.432446 C14.2990851,16.274177 14.6532895,16.0702255 15.0202336,15.7956509 L15.3266705,15.5663522 L15.6826843,15.7068252 L17.305919,16.3477227 L18.5279675,14.2915228 L16.8585729,13.0139417 Z" id="Shape" fill="#000000"></path>
    </g>
</svg>

<svg xmlns="http://www.w3.org/2000/svg" viewBox="0 0 24 24"><path d="M12 15.429a3.428 3.428 0 110-6.857 3.428 3.428 0 010 6.857zm0-1.372a2.057 2.057 0 100-4.114 2.057 2.057 0 000 4.114zm6.311-1.658l1.282.98c.416.32.526.893.262 1.363l-1.495 2.516c-.256.457-.81.64-1.308.463l-1.528-.602a6.1 6.1 0 01-.739.423l-.227 1.58c-.087.51-.535.878-1.052.878h-3.008c-.517 0-.964-.368-1.054-.895l-.224-1.56a5.837 5.837 0 01-.74-.426l-1.55.61c-.476.17-1.03-.014-1.277-.456l-1.5-2.525a1.04 1.04 0 01.26-1.369l1.28-.98a5.084 5.084 0 01.001-.815l-1.283-.964a1.038 1.038 0 01-.262-1.362l1.496-2.516a1.059 1.059 0 011.306-.464l1.531.598a6.02 6.02 0 01.738-.422l.227-1.577A1.06 1.06 0 0110.498 4h3.008c.517 0 .965.368 1.055.895l.224 1.56c.249.118.49.257.737.421l1.528-.597a1.056 1.056 0 011.301.448l1.513 2.546a1.05 1.05 0 01-.277 1.352l-1.277.96a5.299 5.299 0 01.001.814zm-1.452.615l.05-.392c.032-.247.047-.439.047-.622 0-.184-.015-.38-.048-.65l-.047-.392.316-.238 1.35-1.014-1.221-2.054-1.976.771-.303-.221a4.778 4.778 0 00-1.114-.631l-.374-.145-.057-.397-.238-1.658H10.76l-.295 2.055-.375.145a4.757 4.757 0 00-1.113.631l-.304.221-.35-.136L6.7 7.652 5.48 9.706l1.665 1.252-.048.393A5.344 5.344 0 007.05 12c0 .183.015.375.047.622l.05.392-.314.24-1.355 1.037 1.221 2.056 1.98-.78.306.229c.383.286.73.488 1.107.633l.375.145.057.397.238 1.658h2.483l.294-2.05.367-.147a4.82 4.82 0 001.115-.636l.307-.23.356.14 1.623.642 1.222-2.056-1.67-1.278z" fill-rule="evenodd"/></svg>
